X: 14274
T: Gaelic Club, The
R: jig
M: 6/8
K: Aminor
cBA AGE|ABA ABc|BAG BdG|Bdg GAB|
cBA AGE|ABA c2 d|efe dcB|cAA A2 B:|
|:ceg ged|ceg dBG|ceg gec|BAG GAB|
cBA AGE|ABA c2 d|efe dcB|cAA A2 B:|

